icons/ionicons/sharp/library-sharp.svg

<svg xmlns="http://www.w3.org/2000/svg" viewBox="0 0 512 512" width="20" height="20"><path d="M84 480H28a12 12 0 01-12-12V92a12 12 0 0112-12h56a12 12 0 0112 12v376a12 12 0 01-12 12zM240 208v-52a12 12 0 00-12-12H124a12 12 0 00-12 12v52zM112 416v52a12 12 0 0012 12h104a12 12 0 0012-12v-52zM112 240h128v144H112zM340 480h-72a12 12 0 01-12-12V44a12 12 0 0112-12h72a12 12 0 0112 12v424a12 12 0 01-12 12zM369 100.7l30 367.83a12 12 0 0013.45 10.92l72.16-9a12 12 0 0010.47-12.9L465 91.21a12 12 0 00-13.2-10.94l-72.13 7.51A12 12 0 00369 100.7z"/></svg>

<svg xmlns="http://www.w3.org/2000/svg" width="512" height="512" viewBox="0 0 512 512"><title>ionicons-v5-l</title><path d="M84,480H28a12,12,0,0,1-12-12V92A12,12,0,0,1,28,80H84A12,12,0,0,1,96,92V468A12,12,0,0,1,84,480Z"/><path d="M240,208V156a12,12,0,0,0-12-12H124a12,12,0,0,0-12,12v52Z"/><path d="M112,416v52a12,12,0,0,0,12,12H228a12,12,0,0,0,12-12V416Z"/><rect x="112" y="240" width="128" height="144"/><path d="M340,480H268a12,12,0,0,1-12-12V44a12,12,0,0,1,12-12h72a12,12,0,0,1,12,12V468A12,12,0,0,1,340,480Z"/><path d="M369,100.7l30,367.83a12,12,0,0,0,13.45,10.92l72.16-9a12,12,0,0,0,10.47-12.9L465,91.21a12,12,0,0,0-13.2-10.94l-72.13,7.51A12,12,0,0,0,369,100.7Z"/></svg>
